public/illustrations/_hammer.svg

<svg width="285" height="217" viewBox="0 0 285 217" fill="none" xmlns="http://www.w3.org/2000/svg">
<path d="M247.247 78.3874C253.193 95.9441 259.14 113.501 265.087 130.916C271.033 148.331 276.98 165.888 282.927 183.303C284.767 188.117 285.05 193.355 283.635 198.311C282.502 201.85 281.936 205.532 280.803 209.071C279.245 214.168 276.414 216.151 271.175 214.876C264.379 213.319 257.583 211.195 250.928 209.071C247.388 208.08 245.689 205.248 244.273 201.992C234.646 181.604 227 160.649 219.354 139.411C214.54 125.819 208.877 112.368 203.638 98.7758C202.505 96.3688 201.656 93.8203 200.948 91.1301C200.665 89.8559 199.957 88.7232 199.107 87.8737C198.258 87.0242 197.125 86.3162 195.851 86.033C178.86 80.0864 168.666 68.1932 164.985 50.6365C162.012 35.9116 168.949 19.2044 181.409 10.8509C183.958 9.15185 186.365 8.30236 189.338 9.8598C190.612 10.5677 191.745 11.5588 192.453 12.9747C193.161 14.2489 193.302 15.8064 193.019 17.3638C192.453 22.1778 191.886 26.9917 191.037 31.8056C190.329 35.2037 190.895 37.8938 193.869 40.1592C197.125 42.8493 200.24 45.681 203.213 48.6543C203.78 49.3623 204.488 49.787 205.337 50.0702C206.187 50.3534 207.036 50.0702 207.886 49.9286C212.558 48.2296 217.372 46.8137 222.186 45.3979C223.035 45.3979 223.885 44.8315 224.451 44.2652C225.018 43.6988 225.442 42.8493 225.584 41.9998C226.717 36.9027 227.991 31.8056 229.407 26.7085C229.69 25.859 229.69 25.0095 229.407 24.16C229.265 23.3105 228.699 22.461 228.133 21.8946C225.018 18.0718 221.903 14.1074 218.788 10.1429C218.221 9.43502 217.655 8.72709 217.23 8.01916C215.248 4.47951 216.806 0.656688 220.77 0.23193C223.743 -0.192828 226.717 -0.0512071 229.548 0.798309C243.566 5.75382 260.981 19.4876 261.83 43.5572C262.255 54.3178 258.291 63.9456 251.778 72.4408C250.362 74.423 248.804 76.2636 246.964 78.529L247.247 78.3874ZM271.458 204.824C272.449 200.576 273.44 197.036 274.148 193.497C274.431 192.081 274.431 190.523 274.148 189.108C262.538 154.702 250.645 120.155 239.035 85.7499C236.203 77.2547 234.079 77.6795 242.291 68.3348C250.22 59.2733 253.477 48.9375 251.07 36.9027C249.512 29.5403 244.415 21.6114 239.035 18.2134C241.017 22.6025 241.159 23.0273 240.026 27.4165C238.327 34.2126 236.486 40.8671 235.07 47.5217C234.787 49.0791 234.079 50.6366 232.947 51.7693C231.814 52.9019 230.398 53.7514 228.841 54.1762C221.761 56.3 214.682 58.4238 207.603 60.8307C206.187 61.3971 204.629 61.5387 203.072 61.1139C201.514 60.8307 200.24 59.9812 199.107 58.8486C194.293 54.3178 189.338 49.6455 184.241 45.3979C182.542 44.1236 181.126 42.283 180.418 40.1592C179.71 38.0354 179.71 35.77 180.418 33.7878C180.984 31.2393 181.267 28.5491 181.409 25.859L180.276 25.5759C178.719 28.5492 177.303 31.664 176.029 34.9205C170.932 51.4861 180.56 70.0338 197.408 76.2636C199.815 77.1131 202.081 78.2458 204.488 79.0953C207.319 80.0864 208.594 82.2102 209.443 84.9004C210.717 88.8648 212.133 92.6876 213.549 96.5104C217.655 106.988 222.044 117.465 225.867 128.084C234.221 151.163 241.866 174.383 252.769 196.47C253.477 197.744 254.185 199.585 255.459 200.01C260.556 201.85 265.795 203.266 271.317 204.965L271.458 204.824Z" fill="#102185"/>
<path d="M32.3466 69.6235C27.3911 68.3492 22.7187 67.075 17.9048 66.2255C14.2235 65.5175 12.2414 62.2611 13.2325 58.4382C17.0553 42.8638 20.5949 27.2893 24.2762 11.7149C25.6921 5.90984 28.6654 4.06923 34.4704 5.48509C51.0361 9.30791 67.7433 13.1307 84.3089 16.9535C88.2733 17.803 90.6803 19.9269 92.6625 23.7497C98.0428 34.227 103.706 44.846 114.467 51.0757C116.166 52.0668 118.007 53.0579 119.989 53.7659C123.67 55.1817 125.369 57.4471 124.378 61.1284C122.679 68.774 120.838 76.4197 118.714 83.9237C117.582 87.8881 114.892 89.1624 110.502 88.1713L77.5128 80.3841C77.2296 80.3841 76.8048 80.384 75.9553 80.1009C74.5394 86.0475 73.1236 91.9941 71.8493 97.9407L46.3637 209.935C45.0894 215.315 43.3904 216.731 38.1517 216.307C27.5327 215.315 16.9137 214.041 6.43628 212.767C0.631227 212.059 -0.9262 209.51 0.489666 203.705C3.60457 190.68 6.71944 177.512 9.83435 164.486C17.0553 134.045 24.2762 103.604 31.6387 73.3048C31.9219 72.1721 32.0635 71.0394 32.2051 69.7651L32.3466 69.6235ZM42.5409 72.0305C32.0635 115.922 21.7276 159.389 11.3918 203.139L37.3022 205.971C47.0717 162.929 56.6995 120.453 66.469 77.6939L42.5409 72.0305ZM113.759 62.5442C112.06 61.5531 110.786 60.7036 109.511 59.8541C103.565 56.1729 98.0428 51.9253 94.22 45.9786C90.6803 40.4568 87.2822 34.935 83.8842 29.2715C83.4594 28.5636 83.0346 27.8557 82.3267 27.4309C81.6188 27.0062 80.9108 26.5814 80.0613 26.4398C71.2829 24.5992 62.5046 22.4754 53.8678 20.4932L33.6209 15.8209C30.3644 29.6963 27.1079 43.2885 23.8515 57.164L110.078 77.2692L113.617 62.5442H113.759Z" fill="#102185"/>
<path d="M147.457 133.054C146.465 136.169 145.616 138.859 144.766 141.691C141.793 151.885 138.961 162.221 135.988 172.415C135.705 173.548 135.28 174.68 134.855 175.671C133.298 179.211 131.033 180.91 127.21 180.06C122.679 178.928 118.148 177.512 113.759 175.53C109.936 173.972 108.237 170.574 108.945 166.327C110.361 157.407 111.918 148.628 113.334 139.708C114.042 135.319 114.892 130.93 115.741 126.116C113.334 125.55 111.21 124.984 108.945 124.417C102.857 122.86 101.724 120.736 103.282 114.648C104.414 110.4 105.405 106.153 106.68 102.047C107.954 97.9406 110.503 96.2416 114.892 97.2327C130.608 100.914 146.324 104.595 162.04 108.418C167.279 109.692 168.695 111.816 167.562 117.055C166.712 121.302 165.58 125.55 164.447 129.797C163.314 134.045 161.474 135.178 157.084 134.753C154.961 134.47 152.837 133.903 150.713 133.479C149.58 133.196 148.448 133.054 147.173 132.912L147.457 133.054ZM157.226 117.763L116.024 107.993C115.316 110.825 114.892 112.949 114.325 115.214L155.669 123.992L157.226 117.621V117.763ZM126.219 128.24C125.794 130.789 125.511 132.629 125.086 134.895L134.997 137.585L137.121 130.647L126.077 128.24H126.219ZM121.971 150.469L130.749 153.018L132.307 147.496L123.245 145.089L121.971 150.469ZM119.422 167.035L126.219 169.158L128.059 162.787L120.414 160.663L119.422 166.893V167.035Z" fill="#102185"/>
<path d="M181.72 176.52C183.703 184.732 185.543 192.519 187.525 200.306C187.809 201.581 188.233 202.855 188.375 203.988C188.8 206.961 187.667 209.51 184.694 210.359C180.021 211.775 175.349 213.049 170.535 213.899C166.712 214.607 164.73 212.766 163.456 208.377C161.332 201.156 159.35 193.794 157.226 186.573C156.943 185.723 156.66 184.874 156.235 183.741C154.253 183.741 152.129 183.883 150.147 183.741C146.607 183.458 144.766 181.192 145.191 177.794C146.041 170.432 148.448 163.777 154.111 158.822C158.076 155.282 163.173 153.3 168.411 153.3C173.65 153.3 178.747 155.424 182.712 159.105C184.694 160.946 186.534 162.928 188.233 165.052C191.49 169.158 190.357 173.264 185.402 175.246C184.411 175.671 183.419 175.954 181.862 176.52H181.72ZM177.473 202.006C175.491 194.218 173.792 186.997 171.951 179.493L166.288 181.051L172.659 203.138L177.614 202.006H177.473ZM157.084 172.697C163.597 170.998 169.827 169.866 175.915 167.175C169.686 161.087 160.624 163.636 157.084 172.697Z" fill="#102185"/>
<path d="M266.22 186.417C266.22 187.125 266.22 187.833 265.795 188.541C265.512 189.249 265.087 189.815 264.521 190.382C263.954 190.948 263.388 191.231 262.68 191.514C261.972 191.798 261.264 191.939 260.556 191.798C259.848 191.798 259.14 191.514 258.432 191.231C257.724 190.948 257.158 190.382 256.733 189.815C256.309 189.249 255.884 188.541 255.742 187.833C255.601 187.125 255.459 186.417 255.601 185.709C255.601 184.293 256.167 183.019 257.016 182.028C258.008 181.037 259.282 180.471 260.556 180.471C261.972 180.471 263.388 181.179 264.521 182.311C265.512 183.302 266.22 184.718 266.22 186.276V186.417Z" fill="#102185"/>
<path d="M76.9467 53.7662C76.9467 54.4741 76.9467 55.182 76.6635 55.7484C76.3803 56.4563 76.0971 57.0226 75.6724 57.4474C75.2476 58.0137 74.6813 58.2969 74.115 58.5801C73.5486 58.8633 72.8407 59.0048 72.1327 59.0048C71.4248 59.0048 70.7169 59.0048 70.1505 58.7217C69.5842 58.4385 68.8763 58.1553 68.4515 57.589C68.0267 57.1642 67.602 56.5979 67.3188 55.8899C67.0356 55.3236 66.894 54.6157 66.894 53.9077C66.894 52.4919 67.4604 51.076 68.4515 50.0849C69.4426 49.0938 70.8585 48.5275 72.2743 48.5275C72.9822 48.5275 73.5486 48.6691 74.115 48.9522C74.6813 49.2354 75.2476 49.6602 75.6724 50.0849C76.0971 50.5097 76.3803 51.076 76.6635 51.6424C76.9467 52.2087 76.9467 52.9167 76.9467 53.483V53.7662Z" fill="#102185"/>
<path d="M53.7261 47.6773C53.7261 49.0932 53.1598 50.3675 52.1687 51.3586C51.1776 52.3497 49.9033 52.916 48.629 52.916C47.9211 52.916 47.3547 52.916 46.6467 52.4913C46.0804 52.2081 45.5141 51.7833 44.9477 51.3586C44.523 50.9338 44.0982 50.2259 43.9566 49.6595C43.6734 49.0932 43.6735 48.3853 43.6735 47.6773C43.6735 46.2615 44.2398 44.9872 45.2309 44.1377C46.222 43.1466 47.4963 42.7218 48.9121 42.7218C49.6201 42.7218 50.1864 42.7218 50.7528 43.1466C51.3191 43.4297 51.8854 43.7129 52.3102 44.2793C52.735 44.704 53.1597 45.2704 53.3013 45.8367C53.5845 46.4031 53.5845 47.111 53.5845 47.6773H53.7261Z" fill="#102185"/>
</svg>

<svg xmlns="http://www.w3.org/2000/svg" width="285" height="217" fill="none" viewBox="0 0 285 217"><path fill="#102185" d="M247.247 78.387a22054 22054 0 0 0 17.84 52.529c5.946 17.415 11.893 34.972 17.84 52.387 1.84 4.814 2.123 10.052.708 15.008-1.133 3.539-1.699 7.221-2.832 10.76-1.558 5.097-4.389 7.08-9.628 5.805-6.796-1.557-13.592-3.681-20.247-5.805-3.54-.991-5.239-3.823-6.655-7.079-9.627-20.388-17.273-41.343-24.919-62.581-4.814-13.592-10.477-27.043-15.716-40.635-1.133-2.407-1.982-4.956-2.69-7.646-.283-1.274-.991-2.407-1.841-3.256-.849-.85-1.982-1.558-3.256-1.841-16.991-5.947-27.185-17.84-30.866-35.396-2.973-14.725 3.964-31.433 16.424-39.786 2.549-1.7 4.956-2.549 7.929-.991 1.274.708 2.407 1.699 3.115 3.115.708 1.274.849 2.831.566 4.389-.566 4.814-1.133 9.628-1.982 14.442-.708 3.398-.142 6.088 2.832 8.353a133 133 0 0 1 9.344 8.495c.567.708 1.275 1.133 2.124 1.416s1.699 0 2.549-.141c4.672-1.7 9.486-3.115 14.3-4.531.849 0 1.699-.567 2.265-1.133s.991-1.416 1.133-2.265a302 302 0 0 1 3.823-15.291 3.93 3.93 0 0 0 0-2.549c-.142-.85-.708-1.699-1.274-2.265-3.115-3.823-6.23-7.788-9.345-11.752-.567-.708-1.133-1.416-1.558-2.124-1.982-3.54-.424-7.362 3.54-7.787 2.973-.425 5.947-.283 8.778.566 14.018 4.956 31.433 18.69 32.282 42.76.425 10.76-3.539 20.388-10.052 28.883-1.416 1.982-2.974 3.823-4.814 6.088zm24.211 126.437c.991-4.248 1.982-7.788 2.69-11.327a11.5 11.5 0 0 0 0-4.389c-11.61-34.406-23.503-68.953-35.113-103.358-2.832-8.495-4.956-8.07 3.256-17.415 7.929-9.062 11.186-19.397 8.779-31.432-1.558-7.363-6.655-15.292-12.035-18.69 1.982 4.39 2.124 4.814.991 9.203-1.699 6.797-3.54 13.451-4.956 20.106-.283 1.557-.991 3.115-2.123 4.247a9.3 9.3 0 0 1-4.106 2.407c-7.08 2.124-14.159 4.248-21.238 6.655-1.416.566-2.974.708-4.531.283-1.558-.283-2.832-1.133-3.965-2.265-4.814-4.531-9.769-9.203-14.866-13.451-1.699-1.274-3.115-3.115-3.823-5.239s-.708-4.389 0-6.371c.566-2.549.849-5.239.991-7.929l-1.133-.283a94 94 0 0 0-4.247 9.344c-5.097 16.566 4.531 35.114 21.379 41.344 2.407.85 4.673 1.982 7.08 2.831 2.831.991 4.106 3.115 4.955 5.805 1.274 3.965 2.69 7.788 4.106 11.61 4.106 10.478 8.495 20.955 12.318 31.574 8.354 23.079 15.999 46.299 26.902 68.386.708 1.274 1.416 3.115 2.69 3.54 5.097 1.84 10.336 3.256 15.858 4.955zM32.347 69.624c-4.956-1.275-9.628-2.549-14.442-3.398-3.682-.709-5.664-3.965-4.673-7.788 3.823-15.574 7.363-31.149 11.044-46.723 1.416-5.805 4.39-7.646 10.194-6.23 16.566 3.823 33.273 7.646 49.839 11.468 3.964.85 6.371 2.974 8.353 6.797 5.38 10.477 11.044 21.096 21.805 27.326 1.699.99 3.54 1.982 5.522 2.69 3.681 1.416 5.38 3.681 4.389 7.362-1.699 7.646-3.54 15.292-5.664 22.796-1.132 3.964-3.822 5.238-8.212 4.247l-32.99-7.787c-.282 0-.707 0-1.557-.283-1.416 5.947-2.831 11.893-4.106 17.84L46.364 209.935c-1.275 5.38-2.974 6.796-8.212 6.372-10.62-.992-21.238-2.266-31.716-3.54-5.805-.708-7.362-3.257-5.946-9.062 3.115-13.025 6.23-26.193 9.344-39.219 7.221-30.441 14.442-60.882 21.805-91.181.283-1.133.424-2.266.566-3.54zM42.54 72.03a57618 57618 0 0 0-31.15 131.108l25.911 2.832c9.77-43.042 19.398-85.518 29.167-128.277zm71.218-9.487c-1.699-.99-2.973-1.84-4.248-2.69-5.946-3.681-11.468-7.929-15.291-13.875a660 660 0 0 1-10.336-16.707c-.425-.708-.85-1.416-1.557-1.841-.708-.425-1.416-.85-2.266-.991-8.778-1.84-17.556-3.965-26.193-5.947L33.62 15.821c-3.257 13.875-6.513 27.467-9.77 41.343l86.227 20.105 3.539-14.725z"/><path fill="#102185" d="M147.457 133.054a531 531 0 0 0-2.691 8.637c-2.973 10.194-5.805 20.53-8.778 30.724-.283 1.133-.708 2.265-1.133 3.256-1.557 3.54-3.822 5.239-7.645 4.389-4.531-1.132-9.062-2.548-13.451-4.53-3.823-1.558-5.522-4.956-4.814-9.203 1.416-8.92 2.973-17.699 4.389-26.619.708-4.389 1.558-8.778 2.407-13.592-2.407-.566-4.531-1.132-6.796-1.699-6.088-1.557-7.221-3.681-5.663-9.769 1.132-4.248 2.123-8.495 3.398-12.601s3.823-5.805 8.212-4.814c15.716 3.681 31.432 7.362 47.148 11.185 5.239 1.274 6.655 3.398 5.522 8.637-.85 4.247-1.982 8.495-3.115 12.742s-2.973 5.381-7.363 4.956c-2.123-.283-4.247-.85-6.371-1.274-1.133-.283-2.265-.425-3.54-.567zm9.769-15.291-41.202-9.77c-.708 2.832-1.132 4.956-1.699 7.221l41.344 8.778 1.557-6.371zm-31.007 10.477c-.425 2.549-.708 4.389-1.133 6.655l9.911 2.69 2.124-6.938-11.044-2.407zm-4.248 22.229 8.778 2.549 1.558-5.522-9.062-2.407zm-2.549 16.566 6.797 2.123 1.84-6.371-7.645-2.124-.992 6.23zM181.72 176.52c1.983 8.212 3.823 15.999 5.805 23.786.284 1.275.708 2.549.85 3.682.425 2.973-.708 5.522-3.681 6.371-4.673 1.416-9.345 2.69-14.159 3.54-3.823.708-5.805-1.133-7.079-5.522-2.124-7.221-4.106-14.583-6.23-21.804a74 74 0 0 0-.991-2.832c-1.982 0-4.106.142-6.088 0-3.54-.283-5.381-2.549-4.956-5.947.85-7.362 3.257-14.017 8.92-18.972 3.965-3.54 9.062-5.522 14.3-5.522s10.336 2.124 14.301 5.805a55 55 0 0 1 5.521 5.947c3.257 4.106 2.124 8.212-2.831 10.194-.991.425-1.983.708-3.54 1.274zm-4.247 25.486c-1.982-7.788-3.681-15.009-5.522-22.513l-5.663 1.558 6.371 22.087 4.955-1.132zm-20.389-29.309c6.513-1.699 12.743-2.831 18.831-5.522-6.229-6.088-15.291-3.539-18.831 5.522M266.22 186.417c0 .708 0 1.416-.425 2.124-.283.708-.708 1.274-1.274 1.841-.567.566-1.133.849-1.841 1.132-.708.284-1.416.425-2.124.284-.708 0-1.416-.284-2.124-.567s-1.274-.849-1.699-1.416c-.424-.566-.849-1.274-.991-1.982-.141-.708-.283-1.416-.141-2.124 0-1.416.566-2.69 1.415-3.681.992-.991 2.266-1.557 3.54-1.557 1.416 0 2.832.708 3.965 1.84.991.991 1.699 2.407 1.699 3.965zM76.947 53.766c0 .708 0 1.416-.284 1.982-.283.708-.566 1.275-.99 1.7-.425.566-.992.849-1.558 1.132s-1.274.425-1.982.425-1.416 0-1.983-.283c-.566-.284-1.274-.567-1.699-1.133a5.1 5.1 0 0 1-1.132-1.7c-.283-.565-.425-1.273-.425-1.981 0-1.416.566-2.832 1.557-3.823.992-.991 2.408-1.557 3.823-1.557a3.9 3.9 0 0 1 1.841.424 6.3 6.3 0 0 1 1.557 1.133c.425.425.708.991.992 1.557.283.567.283 1.275.283 1.841zM53.726 47.677c0 1.416-.566 2.69-1.557 3.682-.991.99-2.266 1.557-3.54 1.557-.708 0-1.274 0-1.982-.425-.567-.283-1.133-.708-1.7-1.132-.424-.425-.849-1.133-.99-1.7-.284-.566-.284-1.274-.284-1.982 0-1.416.567-2.69 1.558-3.54.991-.99 2.265-1.415 3.681-1.415.708 0 1.274 0 1.84.425.567.283 1.133.566 1.558 1.132.425.425.85.991.991 1.558.283.566.283 1.274.283 1.84z"/></svg>
